icons/svgs/seat-airline-outline.svg

<svg width="24" height="24" viewBox="0 0 24 24" fill="none" xmlns="http://www.w3.org/2000/svg">
<path d="M5.125 2.9375V7.58594C5.125 7.89844 5.16406 8.21094 5.28125 8.48438L5.75 9.5H16.0625C16.5703 9.5 17 9.92969 17 10.4375C17 10.9844 16.5703 11.375 16.0625 11.375H6.60938L7.15625 12.625H19.8125C20.125 12.625 20.3984 12.8203 20.5938 13.0547C20.75 13.3281 20.7891 13.6406 20.6719 13.9531L19.5781 16.5312C19.1484 17.5859 18.1328 18.25 17 18.25H13.5625V20.125H17.3125C17.8203 20.125 18.25 20.5547 18.25 21.0625C18.25 21.6094 17.8203 22 17.3125 22H7.9375C7.39062 22 7 21.6094 7 21.0625C7 20.5547 7.39062 20.125 7.9375 20.125H11.6875V18.25H9.85156C8.48438 18.25 7.27344 17.4688 6.72656 16.2188L3.60156 9.26562C3.36719 8.75781 3.25 8.17188 3.25 7.58594V2.9375C3.25 2.42969 3.64062 2 4.1875 2C4.69531 2 5.125 2.42969 5.125 2.9375ZM8.40625 15.4766C8.67969 16.0234 9.22656 16.375 9.85156 16.375H17C17.3516 16.375 17.7031 16.1797 17.8594 15.8281L18.4062 14.5H8.01562L8.40625 15.4766Z" fill="black"/>
</svg>

<svg xmlns="http://www.w3.org/2000/svg" width="24" height="24" fill="currentColor" class="icon-seat-airline-outline" viewBox="0 0 24 24">
  <mask id="a" width="18" height="20" x="3" y="2" maskUnits="userSpaceOnUse" style="mask-type:alpha">
    <path d="M5.125 2.938v4.648c0 .312.04.625.156.898L5.75 9.5h10.313a.95.95 0 0 1 .937.938c0 .546-.43.937-.937.937H6.608l.547 1.25h12.657c.312 0 .585.195.78.43.157.273.196.586.079.898l-1.094 2.578A2.76 2.76 0 0 1 17 18.25h-3.437v1.875h3.75a.95.95 0 0 1 .937.938c0 .546-.43.937-.937.937H7.938C7.39 22 7 21.61 7 21.063c0-.508.39-.938.938-.938h3.75V18.25H9.852a3.38 3.38 0 0 1-3.125-2.031L3.602 9.266a4.05 4.05 0 0 1-.352-1.68V2.938c0-.508.39-.938.938-.938a.95.95 0 0 1 .937.938m3.281 12.539c.274.546.82.898 1.446.898H17a.94.94 0 0 0 .86-.547l.546-1.328H8.016z"/>
  </mask>
  <g mask="url(#a)">
    <path d="M0 0h24v24H0z"/>
  </g>
</svg>
